X: 25523
T: Margie O'Driscoll
R: reel
M: 4/4
K: Gmajor
|:EF|"G"G2 BG dGBG|"Em"BedB "D"AGEF|"G"G2 BG dGBG|"Em"EGFG EDB,D|
"G"G2 BG dGBG|"Em"BedB "D"Adef|"G"g2 dB "Am"ecAG|"D"FGAF "G"G2:|
|:Bd|"Em"eg (3gfg "Bm"faab|"C"ge"D"fd "Em"edBd|"Em"eg (3gfg "D"faaf|"G"gfed "Em"e2 Bd|
"Em"eg (3gfg "Bm"faab|"C"ge"D"fd "Em"edBd|"G"gfed "Em"eBBc|"D"dBAF "G"G2:|

